X:293
T: SO WUENSCH ICH IHR EIN GUTE NACHT
N: Z0291
O: Europa, Mitteleuropa, Deutschland
R: Lyrisches Lied, Romanze
M: 2/4
L: 1/16
K: F
c2 | A2G2F2G2 | C4E4 | F6
F2 | d2c2B2A2 | G4G2
c2 | A2G2F2G2 | C4E4 | F6
F2 | d2c2B2A2 | G4G2
c2 | f4f4 | e6e2 | d4d4 | c4
B2AG | A2BAG2G2 | F6
F2 | d2c2B2A2 | G4G2
c2 | f4f4 | e6e2 | d4d4 | c4
B2AG | A2BAG2G2 | F6

@@@ Tune index: 10051
